svgs/thin/mars.svg

<svg xmlns="http://www.w3.org/2000/svg" viewBox="0 0 448 512"><!-- Font Awesome Pro 6.0.0-alpha2 by @fontawesome - https://fontawesome.com License - https://fontawesome.com/license (Commercial License) --><path d="M440 32H296C291.578 32 288 35.578 288 40S291.578 48 296 48H420.688L294.525 174.164C263.232 145.578 221.721 128 176 128C78.799 128 0 206.797 0 304S78.799 480 176 480C273.203 480 352 401.203 352 304C352 258.281 334.42 216.766 305.838 185.477L432 59.312V184C432 188.422 435.578 192 440 192S448 188.422 448 184V40C448 35.578 444.422 32 440 32ZM176 464C87.775 464 16 392.223 16 304S87.775 144 176 144S336 215.777 336 304S264.225 464 176 464Z"/></svg>

<svg xmlns="http://www.w3.org/2000/svg" viewBox="0 0 448 512"><!--! Font Awesome Pro 6.3.0 by @fontawesome - https://fontawesome.com License - https://fontawesome.com/license (Commercial License) Copyright 2023 Fonticons, Inc. --><path d="M288 40c0 4.4 3.6 8 8 8H420.7l-126 126c-31.3-28.6-72.9-46-118.7-46C78.8 128 0 206.8 0 304s78.8 176 176 176s176-78.8 176-176c0-45.7-17.4-87.4-46-118.7l126-126V184c0 4.4 3.6 8 8 8s8-3.6 8-8V40c0-4.4-3.6-8-8-8H296c-4.4 0-8 3.6-8 8zM16 304a160 160 0 1 1 320 0A160 160 0 1 1 16 304z"/></svg>
